static/fa/svgs/solid/shield-heart.svg

<svg xmlns="http://www.w3.org/2000/svg" viewBox="0 0 512 512"><!--! Font Awesome Free 6.1.1 by @fontawesome - https://fontawesome.com License - https://fontawesome.com/license/free (Icons: CC BY 4.0, Fonts: SIL OFL 1.1, Code: MIT License) Copyright 2022 Fonticons, Inc.--><path d="M256.3-.007c5.6-.044 11 1.393 15.8 4.073L476.5 90.53c11.2 4.74 18.7 14.57 19.4 27.57 5.7 95.5-29.2 303.8-223.4 389.6-4.9 2.8-11.4 4.4-16.2 4.3-5.8.1-11.4-1.5-17.2-4.3C45.8 421.9 10.95 213.6 16.57 118.1c.71-13 8.26-22.83 19.47-27.57L240.4 4.066a32.18 32.18 0 0 1 15.9-4.073zm9.8 363.407 98.1-99.8c28-28.9 26.3-77-6.1-104.1-26.3-23.7-66.6-19.3-92 7l-9.7 9.6-10.5-9.6c-24.5-26.3-65.7-30.7-92.9-7-31.5 27.1-33.2 75.2-5.2 104.1l96.4 99.8c7 6.1 16.6 6.1 21.9 0z"/></svg>

<svg xmlns="http://www.w3.org/2000/svg" viewBox="0 0 512 512"><!--! Font Awesome Free 6.1.1 by @fontawesome - https://fontawesome.com License - https://fontawesome.com/license/free (Icons: CC BY 4.0, Fonts: SIL OFL 1.1, Code: MIT License) Copyright 2022 Fonticons, Inc. --><path d="M256.3-.0068C261.9-.0507 267.3 1.386 272.1 4.066L476.5 90.53C487.7 95.27 495.2 105.1 495.9 118.1C501.6 213.6 466.7 421.9 272.5 507.7C267.6 510.5 261.1 512.1 256.3 512C250.5 512.1 244.9 510.5 239.1 507.7C45.8 421.9 10.95 213.6 16.57 118.1C17.28 105.1 24.83 95.27 36.04 90.53L240.4 4.066C245.2 1.386 250.7-.0507 256.3-.0068H256.3zM266.1 363.4L364.2 263.6C392.2 234.7 390.5 186.6 358.1 159.5C331.8 135.8 291.5 140.2 266.1 166.5L256.4 176.1L245.9 166.5C221.4 140.2 180.2 135.8 153 159.5C121.5 186.6 119.8 234.7 147.8 263.6L244.2 363.4C251.2 369.5 260.8 369.5 266.1 363.4V363.4z"/></svg>
